austria/municipalities/31813.svg

<?xml version="1.0" encoding="UTF-8"?>
<!DOCTYPE svg PUBLIC "-//W3C//DTD SVG 1.1//EN" "http://www.w3.org/Graphics/SVG/1.1/DTD/svg11.dtd">
<svg xmlns="http://www.w3.org/2000/svg" version="1.1" width="100px" height="110px" style="shape-rendering:geometricPrecision; text-rendering:geometricPrecision; image-rendering:optimizeQuality; fill-rule:evenodd; clip-rule:evenodd" xmlns:xlink="http://www.w3.org/1999/xlink">
<g><path style="opacity:1" fill="#fdfdfd" d="M -0.5,-0.5 C 1.83333,-0.5 4.16667,-0.5 6.5,-0.5C 6.5,4.16667 6.5,8.83333 6.5,13.5C 6.16955,33.6736 6.50288,53.6736 7.5,73.5C 11.5619,86.0631 19.8952,94.5631 32.5,99C 38.6905,100.435 44.0238,103.269 48.5,107.5C 49.8448,106.653 50.8448,105.487 51.5,104C 64.5368,100.66 75.7034,94.1599 85,84.5C 87.0383,81.7568 88.5383,78.7568 89.5,75.5C 91.2499,71.8171 91.9166,67.8171 91.5,63.5C 92.4973,42.3399 92.8306,21.0065 92.5,-0.5C 94.8333,-0.5 97.1667,-0.5 99.5,-0.5C 99.5,36.1667 99.5,72.8333 99.5,109.5C 66.1667,109.5 32.8333,109.5 -0.5,109.5C -0.5,72.8333 -0.5,36.1667 -0.5,-0.5 Z"/></g>
<g><path style="opacity:1" fill="#70a46c" d="M 6.5,-0.5 C 12.8333,-0.5 19.1667,-0.5 25.5,-0.5C 25.5,-0.166667 25.5,0.166667 25.5,0.5C 19.5,0.5 13.5,0.5 7.5,0.5C 7.5,4.83333 7.5,9.16667 7.5,13.5C 7.16667,13.5 6.83333,13.5 6.5,13.5C 6.5,8.83333 6.5,4.16667 6.5,-0.5 Z"/></g>
<g><path style="opacity:1" fill="#3a3939" d="M 25.5,0.5 C 25.5,0.166667 25.5,-0.166667 25.5,-0.5C 47.8333,-0.5 70.1667,-0.5 92.5,-0.5C 92.8306,21.0065 92.4973,42.3399 91.5,63.5C 91.81,60.2869 91.4767,57.2869 90.5,54.5C 90.5,54.1667 90.5,53.8333 90.5,53.5C 91.3382,53.1583 91.6716,52.4916 91.5,51.5C 91.8235,44.9779 91.4902,38.6446 90.5,32.5C 90.5,32.1667 90.5,31.8333 90.5,31.5C 91.4942,21.3468 91.8276,11.0135 91.5,0.5C 69.9935,0.169363 48.6601,0.502696 27.5,1.5C 26.8333,1.16667 26.1667,0.833333 25.5,0.5 Z"/></g>
<g><path style="opacity:1" fill="#57b442" d="M 25.5,0.5 C 26.1667,0.833333 26.8333,1.16667 27.5,1.5C 40.0329,9.20558 49.8663,19.5389 57,32.5C 59.1667,34.6667 61.3333,36.8333 63.5,39C 73.1004,42.7989 82.1004,47.6323 90.5,53.5C 90.5,53.8333 90.5,54.1667 90.5,54.5C 90.6231,61.5293 90.2897,68.5293 89.5,75.5C 88.5768,76.3029 87.5768,76.4696 86.5,76C 81.7886,71.6201 76.7886,67.6201 71.5,64C 63.8335,60.8958 56.5001,57.2292 49.5,53C 42.2488,43.0778 34.2488,33.7444 25.5,25C 19.9483,21.275 14.2816,17.775 8.5,14.5C 8.5,13.8333 8.16667,13.5 7.5,13.5C 7.5,9.16667 7.5,4.83333 7.5,0.5C 13.5,0.5 19.5,0.5 25.5,0.5 Z"/></g>
<g><path style="opacity:1" fill="#131317" d="M 90.5,31.5 C 83.9559,27.641 77.4559,23.641 71,19.5C 66.3422,22.5836 62.1755,26.2502 58.5,30.5C 60.311,33.478 62.6443,35.978 65.5,38C 74.1271,41.14 82.1271,45.3066 89.5,50.5C 89.8417,51.3382 90.5084,51.6716 91.5,51.5C 91.6716,52.4916 91.3382,53.1583 90.5,53.5C 82.1004,47.6323 73.1004,42.7989 63.5,39C 61.3333,36.8333 59.1667,34.6667 57,32.5C 49.8663,19.5389 40.0329,9.20558 27.5,1.5C 48.6601,0.502696 69.9935,0.169363 91.5,0.5C 91.8276,11.0135 91.4942,21.3468 90.5,31.5 Z"/></g>
<g><path style="opacity:1" fill="#3b3a3a" d="M 6.5,13.5 C 6.83333,13.5 7.16667,13.5 7.5,13.5C 8.16667,13.5 8.5,13.8333 8.5,14.5C 7.50293,33.9929 7.1696,53.6596 7.5,73.5C 6.50288,53.6736 6.16955,33.6736 6.5,13.5 Z"/></g>
<g><path style="opacity:1" fill="#141318" d="M 8.5,14.5 C 14.2816,17.775 19.9483,21.275 25.5,25C 34.2488,33.7444 42.2488,43.0778 49.5,53C 56.5001,57.2292 63.8335,60.8958 71.5,64C 76.7886,67.6201 81.7886,71.6201 86.5,76C 87.5768,76.4696 88.5768,76.3029 89.5,75.5C 88.5383,78.7568 87.0383,81.7568 85,84.5C 75.7034,94.1599 64.5368,100.66 51.5,104C 50.8448,105.487 49.8448,106.653 48.5,107.5C 44.0238,103.269 38.6905,100.435 32.5,99C 19.8952,94.5631 11.5619,86.0631 7.5,73.5C 7.1696,53.6596 7.50293,33.9929 8.5,14.5 Z"/></g>
<g><path style="opacity:1" fill="#f8f8f8" d="M 90.5,31.5 C 90.5,31.8333 90.5,32.1667 90.5,32.5C 90.8229,38.69 90.4896,44.69 89.5,50.5C 82.1271,45.3066 74.1271,41.14 65.5,38C 62.6443,35.978 60.311,33.478 58.5,30.5C 62.1755,26.2502 66.3422,22.5836 71,19.5C 77.4559,23.641 83.9559,27.641 90.5,31.5 Z"/></g>
<g><path style="opacity:1" fill="#6f6d6b" d="M 90.5,32.5 C 91.4902,38.6446 91.8235,44.9779 91.5,51.5C 90.5084,51.6716 89.8417,51.3382 89.5,50.5C 90.4896,44.69 90.8229,38.69 90.5,32.5 Z"/></g>
<g><path style="opacity:1" fill="#e7e7e7" d="M 30.5,62.5 C 31.1434,59.0125 33.1434,56.5125 36.5,55C 34.0465,53.2599 32.5465,51.0933 32,48.5C 34.6778,45.8504 36.8444,46.3504 38.5,50C 39.448,50.4828 40.448,50.6495 41.5,50.5C 43.068,53.3105 44.4013,56.3105 45.5,59.5C 42.6236,59.7567 39.957,58.7567 37.5,56.5C 35.7665,59.236 33.4331,61.236 30.5,62.5 Z"/></g>
<g><path style="opacity:1" fill="#e9e8e9" d="M 30.5,62.5 C 34.4632,66.9645 38.6298,71.2978 43,75.5C 43.8333,78.6667 42.6667,79.8333 39.5,79C 35.6667,74.5 31.8333,70 28,65.5C 24.9101,70.2641 21.4101,74.7641 17.5,79C 14.9085,79.3008 14.0752,78.1341 15,75.5C 18.8604,71.6396 22.6937,67.8063 26.5,64C 24.5055,61.1726 22.1722,58.6726 19.5,56.5C 17.8867,58.1233 16.22,59.29 14.5,60C 12.0323,58.4117 11.8657,56.5784 14,54.5C 16.7026,51.462 19.7026,48.7954 23,46.5C 26.267,49.3695 25.767,51.7029 21.5,53.5C 24.1877,56.8544 27.1877,59.8544 30.5,62.5 Z"/></g>
<g><path style="opacity:1" fill="#456f3c" d="M 90.5,54.5 C 91.4767,57.2869 91.81,60.2869 91.5,63.5C 91.9166,67.8171 91.2499,71.8171 89.5,75.5C 90.2897,68.5293 90.6231,61.5293 90.5,54.5 Z"/></g>
</svg>

<svg xmlns="http://www.w3.org/2000/svg" width="100" height="110" style="shape-rendering:geometricPrecision;text-rendering:geometricPrecision;image-rendering:optimizeQuality;fill-rule:evenodd;clip-rule:evenodd"><path style="opacity:1" fill="#fdfdfd" d="M-.5-.5h7v14a900.594 900.594 0 0 0 1 60c4.062 12.563 12.395 21.063 25 25.5 6.19 1.435 11.524 4.269 16 8.5 1.345-.847 2.345-2.013 3-3.5 13.037-3.34 24.203-9.84 33.5-19.5a28.522 28.522 0 0 0 4.5-9c1.75-3.683 2.417-7.683 2-12 .997-21.16 1.33-42.493 1-64h7v110H-.5V-.5z"/><path style="opacity:1" fill="#70a46c" d="M6.5-.5h19v1h-18v13h-1v-14z"/><path style="opacity:1" fill="#3a3939" d="M25.5.5v-1h67c.33 21.506-.003 42.84-1 64 .31-3.213-.023-6.213-1-9v-1c.838-.342 1.172-1.008 1-2 .323-6.522-.01-12.855-1-19v-1c.994-10.153 1.328-20.486 1-31-21.507-.33-42.84.003-64 1l-2-1z"/><path style="opacity:1" fill="#57b442" d="m25.5.5 2 1c12.533 7.706 22.366 18.039 29.5 31l6.5 6.5c9.6 3.799 18.6 8.632 27 14.5v1c.123 7.03-.21 14.03-1 21-.923.803-1.923.97-3 .5a129.126 129.126 0 0 0-15-12c-7.666-3.104-15-6.77-22-11a238.506 238.506 0 0 0-24-28 264.321 264.321 0 0 0-17-10.5c0-.667-.333-1-1-1V.5h18z"/><path style="opacity:1" fill="#131317" d="M90.5 31.5a610.226 610.226 0 0 1-19.5-12 60.91 60.91 0 0 0-12.5 11 25.041 25.041 0 0 0 7 7.5c8.627 3.14 16.627 7.307 24 12.5.342.838 1.008 1.172 2 1 .172.992-.162 1.658-1 2a131.405 131.405 0 0 0-27-14.5L57 32.5c-7.134-12.961-16.967-23.294-29.5-31C48.66.503 69.993.17 91.5.5c.328 10.514-.006 20.847-1 31z"/><path style="opacity:1" fill="#3b3a3a" d="M6.5 13.5h1c.667 0 1 .333 1 1a870.843 870.843 0 0 0-1 59 900.594 900.594 0 0 1-1-60z"/><path style="opacity:1" fill="#141318" d="M8.5 14.5a264.321 264.321 0 0 1 17 10.5 238.506 238.506 0 0 1 24 28c7 4.23 14.334 7.896 22 11a129.126 129.126 0 0 1 15 12c1.077.47 2.077.303 3-.5a28.522 28.522 0 0 1-4.5 9c-9.297 9.66-20.463 16.16-33.5 19.5-.655 1.487-1.655 2.653-3 3.5-4.476-4.231-9.81-7.065-16-8.5-12.605-4.437-20.938-12.937-25-25.5-.33-19.84.003-39.507 1-59z"/><path style="opacity:1" fill="#f8f8f8" d="M90.5 31.5v1c.323 6.19-.01 12.19-1 18-7.373-5.193-15.373-9.36-24-12.5a25.041 25.041 0 0 1-7-7.5 60.91 60.91 0 0 1 12.5-11 610.226 610.226 0 0 0 19.5 12z"/><path style="opacity:1" fill="#6f6d6b" d="M90.5 32.5c.99 6.145 1.323 12.478 1 19-.992.172-1.658-.162-2-1 .99-5.81 1.323-11.81 1-18z"/><path style="opacity:1" fill="#e7e7e7" d="M30.5 62.5c.643-3.487 2.643-5.987 6-7.5-2.453-1.74-3.953-3.907-4.5-6.5 2.678-2.65 4.844-2.15 6.5 1.5.948.483 1.948.65 3 .5a55.583 55.583 0 0 1 4 9c-2.876.257-5.543-.743-8-3-1.733 2.736-4.067 4.736-7 6z"/><path style="opacity:1" fill="#e9e8e9" d="M30.5 62.5a228.244 228.244 0 0 0 12.5 13c.833 3.167-.333 4.333-3.5 3.5L28 65.5A100.52 100.52 0 0 1 17.5 79c-2.591.3-3.425-.866-2.5-3.5L26.5 64a37.411 37.411 0 0 0-7-7.5c-1.613 1.623-3.28 2.79-5 3.5-2.468-1.588-2.634-3.422-.5-5.5a51.045 51.045 0 0 1 9-8c3.267 2.87 2.767 5.203-1.5 7a57.449 57.449 0 0 0 9 9z"/><path style="opacity:1" fill="#456f3c" d="M90.5 54.5c.977 2.787 1.31 5.787 1 9 .417 4.317-.25 8.317-2 12a161.27 161.27 0 0 0 1-21z"/></svg>
